X:592
T: TRITT IN KREIS MEINE ROSA
N: E1902
O: Europa, Mitteleuropa, Deutschland, Schleswig
R: Kinder - Lied, Tanz, Spiel, Pantomime
M: 3/4
L: 1/8
K: C
G,G, | C4CD | C2B,2
G,G, | D4DE | D2C2
G,G, | E3DCB, | A,2A,2
CA, | G,2C2D2 | C2z2

